pro/src/icons/stroke-accessibility-brain.svg

<svg width="48" height="48" viewBox="0 0 48 48" fill="none" xmlns="http://www.w3.org/2000/svg">
<path id="icon" fill-rule="evenodd" clip-rule="evenodd" d="M34.8868 8.35255C31.9009 5.61232 28.1599 3.99716 25.0461 4.04743C22.5095 4.09241 21.0485 4.37729 20.2255 4.66201C21.8467 5.49126 23.3833 6.7137 24.5408 8.49353C25.8035 10.435 26.5714 12.9725 26.5714 16.2485C26.5714 20.2318 27.0749 23.4624 27.5752 25.6887C27.8253 26.8016 28.0744 27.6628 28.2588 28.2405C28.3511 28.5293 28.4271 28.7472 28.479 28.8902C28.5049 28.9617 28.5248 29.0144 28.5377 29.0479L28.5516 29.0837L28.5542 29.0902L28.5544 29.0906L28.5544 29.0906C28.7363 29.541 28.575 30.0567 28.1682 30.3249L25.5805 32.0309L25.7462 34.4896C25.7476 34.5098 25.7483 34.53 25.7485 34.55C27.1095 34.5289 28.399 34.3023 29.3717 34.071C29.8798 33.9502 30.2948 33.8297 30.5801 33.7404C30.7226 33.6958 30.8323 33.6591 30.9047 33.6342C30.9408 33.6218 30.9676 33.6123 30.9844 33.6063L31.0021 33.5999L31.0048 33.5989C31.4163 33.4461 31.8799 33.5701 32.159 33.9076C32.4381 34.2453 32.4707 34.722 32.2403 35.0942L31.1197 36.9042C29.9332 38.8273 27.8205 39.9961 25.5428 39.9961C25.1905 39.9961 24.8421 39.9679 24.5003 39.9131C24.5015 40.0943 24.5121 40.3384 24.5324 40.6499C24.5426 40.8071 24.555 40.9787 24.568 41.1583L24.568 41.1586L24.568 41.1589L24.568 41.1591L24.568 41.1591C24.5955 41.5399 24.6256 41.9561 24.643 42.3463C24.6647 42.8342 24.6718 43.3622 24.6193 43.8294C26.0809 44.0896 27.6348 43.7226 28.8358 42.7318L31.6952 40.3719C32.2125 39.9455 32.7054 39.4948 33.1723 39.0219C35.8278 36.3323 37.645 32.9252 38.3672 29.2064L38.3676 29.2045C38.7624 27.1917 39.1583 25.0439 39.4551 23.1592C39.7555 21.2519 39.9429 19.6827 39.9429 18.7911C39.9429 14.7964 37.8611 11.0821 34.8868 8.35255ZM18.0682 5.99684C18.0102 5.98405 17.954 5.96635 17.8999 5.94418C14.8926 5.02528 10.8035 4.96622 7.58767 7.0374C7.11082 7.34452 6.47399 7.20892 6.16527 6.73453C5.85655 6.26014 5.99286 5.6266 6.46971 5.31948C10.0639 3.0046 14.4232 2.93983 17.7785 3.78691C17.974 3.57063 18.23 3.36344 18.5569 3.17348C19.6104 2.56141 21.5099 2.06352 25.0102 2.00152L25.0118 2.00149C28.7893 1.94016 33.0193 3.85464 36.2817 6.84863C39.556 9.85352 42 14.0785 42 18.7911C42 19.8626 41.7862 21.5789 41.4875 23.4759C41.1852 25.3954 40.784 27.5704 40.3868 29.5957C39.4461 34.4381 36.8308 38.7966 33.0088 41.9466L30.1493 44.3065C28.2167 45.901 25.6429 46.3386 23.3603 45.6244L23.3363 45.6296L23.3344 45.63C20.174 46.282 17.5066 46.0446 15.0391 45.1407C12.5986 44.2467 10.4091 42.7201 8.17492 40.8917C7.73624 40.5327 7.67319 39.888 8.03411 39.4516C8.39502 39.0153 9.04321 38.9526 9.48189 39.3116C11.6603 41.0943 13.6365 42.4463 15.75 43.2205C17.635 43.911 19.6739 44.1576 22.1187 43.7719C22.2396 43.6061 22.4054 43.4841 22.591 43.4151C22.6074 43.1512 22.605 42.8211 22.5878 42.4369C22.5717 42.0734 22.5453 41.7093 22.5189 41.345C22.5053 41.1574 22.4917 40.9697 22.4795 40.782C22.4473 40.286 22.4184 39.7222 22.4779 39.314C22.4813 39.2908 22.4854 39.2679 22.4903 39.2453C21.471 38.7117 20.594 37.9122 19.968 36.9076L19.9664 36.905L18.8453 35.0942C18.6149 34.722 18.6475 34.2453 18.9266 33.9076C19.0204 33.7942 19.1351 33.7048 19.2616 33.642C19.5338 33.4134 19.9039 33.3023 20.3066 33.4017C21.2583 33.6473 22.4001 33.8929 23.6573 34.0863L23.488 31.5749C23.4633 31.2083 23.6381 30.8567 23.946 30.6537L26.3631 29.0601C26.3423 28.997 26.3207 28.9303 26.2982 28.8599C26.097 28.2297 25.8318 27.3108 25.5676 26.135C25.0393 23.7839 24.5142 20.4027 24.5142 16.2485C24.5142 13.2992 23.8267 11.1627 22.8136 9.60496C21.805 8.05416 20.4305 7.01051 18.9398 6.31292C18.6623 6.19974 18.3711 6.09393 18.0682 5.99684ZM25.089 37.9267L25.1016 36.5918C25.2477 36.596 25.3948 36.5981 25.5428 36.5981C26.8461 36.5981 28.0809 36.429 29.0932 36.2269C28.2546 37.3041 26.948 37.9496 25.5428 37.9496C25.3903 37.9496 25.2389 37.9419 25.089 37.9267ZM17.7716 24.8014C18.5801 24.2063 19.3129 24.2168 19.8659 24.3591L20.7946 24.7847C21.239 25.1307 21.8815 25.0559 22.2334 24.6158C22.587 24.1735 22.5133 23.5298 22.0687 23.178L21.4411 23.963C22.0687 23.178 22.0683 23.1777 22.0679 23.1773L22.067 23.1766L22.0651 23.1752L22.0607 23.1717L22.0496 23.1631C22.0411 23.1566 22.0305 23.1486 22.0178 23.1393C21.9925 23.1206 21.9589 23.0965 21.9175 23.0682C21.8348 23.0118 21.7199 22.9381 21.5765 22.8579C21.2918 22.6988 20.8824 22.5068 20.381 22.3778C19.3526 22.1131 17.951 22.1236 16.5481 23.1562C16.0914 23.4924 15.9951 24.1331 16.333 24.5874C16.6709 25.0417 17.315 25.1375 17.7716 24.8014ZM20.7889 24.7805L20.7897 24.7808L20.791 24.7819L20.7931 24.7835L20.7946 24.7847L20.7917 24.7826L20.7889 24.7805ZM20.7889 24.7805C20.7822 24.7756 20.7704 24.7671 20.7539 24.7559C20.7155 24.7297 20.6525 24.6889 20.5685 24.6419C20.3983 24.5467 20.1552 24.4335 19.8659 24.3591L20.7889 24.7805ZM30.1145 24.8014C30.923 24.2063 31.6558 24.2168 32.2088 24.3591L33.1375 24.7847C33.3784 24.9723 33.6775 25.0362 33.957 24.9853C34.1931 24.9423 34.4152 24.8173 34.5763 24.6158C34.9299 24.1735 34.8562 23.5298 34.4116 23.178L34.0314 23.6534C34.4115 23.1779 34.4111 23.1776 34.4108 23.1773L34.4099 23.1766L34.408 23.1752L34.4036 23.1717L34.3925 23.1631C34.384 23.1566 34.3734 23.1486 34.3607 23.1393C34.3354 23.1206 34.3018 23.0965 34.2604 23.0682C34.2093 23.0333 34.1458 22.9919 34.071 22.9463C34.0247 22.9182 33.9741 22.8885 33.9193 22.8579C33.6347 22.6988 33.2253 22.5068 32.7239 22.3778C31.6954 22.1131 30.2939 22.1236 28.891 23.1562C28.4343 23.4924 28.338 24.1331 28.6759 24.5874C29.0138 25.0417 29.6579 25.1375 30.1145 24.8014ZM33.1318 24.7805L33.1326 24.7808L33.1339 24.7819L33.136 24.7835L33.1375 24.7847L33.1346 24.7826L33.1318 24.7805ZM33.1318 24.7805C33.1251 24.7756 33.1133 24.7671 33.0968 24.7559C33.0584 24.7297 32.9953 24.6889 32.9114 24.6419C32.7411 24.5467 32.4981 24.4335 32.2088 24.3591L33.1318 24.7805Z" fill="currentColor"/>
</svg>

<svg xmlns="http://www.w3.org/2000/svg" width="48" height="48" fill="none"><path id="icon" fill="currentColor" fill-rule="evenodd" d="M34.887 8.353c-2.986-2.74-6.727-4.356-9.84-4.306-2.538.045-3.998.33-4.821.615 1.62.83 3.157 2.052 4.315 3.832 1.262 1.941 2.03 4.479 2.03 7.755 0 3.983.504 7.213 1.004 9.44.25 1.113.5 1.974.684 2.552a18 18 0 0 0 .279.807l.014.036.002.006c.182.451.021.967-.386 1.235l-2.587 1.706.165 2.459.003.06c1.36-.021 2.65-.248 3.623-.479a18 18 0 0 0 1.533-.437l.08-.028.017-.006.003-.001a1.03 1.03 0 0 1 1.154.309c.28.337.312.814.081 1.186l-1.12 1.81a6.55 6.55 0 0 1-5.577 3.092q-.528 0-1.043-.083.003.27.032.737.016.237.036.508v.001c.027.38.058.797.075 1.187.022.488.029 1.016-.024 1.483a5.2 5.2 0 0 0 4.217-1.097l2.86-2.36q.776-.64 1.476-1.35a19.2 19.2 0 0 0 5.195-9.816v-.002c.395-2.012.791-4.16 1.088-6.045.3-1.907.488-3.476.488-4.368 0-3.995-2.082-7.709-5.056-10.438M18.068 5.997a1 1 0 0 1-.168-.053c-3.007-.919-7.096-.978-10.312 1.093a1.03 1.03 0 0 1-1.423-.302 1.02 1.02 0 0 1 .305-1.416c3.594-2.314 7.953-2.38 11.309-1.532.195-.216.451-.424.778-.614 1.053-.612 2.953-1.11 6.453-1.171h.002c3.777-.062 8.007 1.853 11.27 4.847C39.556 9.854 42 14.079 42 18.79c0 1.072-.214 2.788-.513 4.685-.302 1.92-.703 4.094-1.1 6.12-.94 4.842-3.556 9.2-7.378 12.35l-2.86 2.36a7.27 7.27 0 0 1-6.789 1.318l-.024.006h-.002c-3.16.652-5.827.415-8.295-.49-2.44-.893-4.63-2.42-6.864-4.248a1.02 1.02 0 0 1-.14-1.44 1.03 1.03 0 0 1 1.447-.14c2.178 1.782 4.155 3.134 6.268 3.909 1.885.69 3.924.937 6.369.55.12-.165.286-.287.472-.356a10 10 0 0 0-.003-.978c-.016-.364-.043-.728-.07-1.092l-.038-.563c-.033-.496-.062-1.06-.002-1.468l.012-.069a6.55 6.55 0 0 1-2.522-2.337l-.002-.003-1.12-1.81a1.02 1.02 0 0 1 .416-1.453c.272-.229.642-.34 1.045-.24.951.245 2.093.49 3.35.684l-.169-2.511c-.025-.367.15-.718.458-.921l2.417-1.594-.065-.2c-.201-.63-.466-1.55-.73-2.725-.529-2.351-1.054-5.732-1.054-9.887 0-2.949-.687-5.085-1.7-6.643-1.009-1.55-2.384-2.594-3.874-3.292a12 12 0 0 0-.872-.316m7.021 31.93.013-1.335q.22.006.44.006c1.304 0 2.539-.169 3.551-.371a4.5 4.5 0 0 1-4.004 1.7M17.772 24.8c.808-.595 1.54-.584 2.094-.442l.929.426a1.03 1.03 0 0 0 1.438-.17 1.02 1.02 0 0 0-.164-1.437l-.628.785c.628-.785.627-.785.627-.786h-.001l-.002-.002-.004-.003-.011-.009a2 2 0 0 0-.133-.095 5.049 5.049 0 0 0-1.537-.69c-1.027-.265-2.429-.254-3.832.778a1.02 1.02 0 0 0-.215 1.431c.338.455.982.55 1.439.214m3.017-.02h.002l.002.003h.002l-.003-.001zm0 0-.035-.025a2.98 2.98 0 0 0-.888-.397zm9.325.02c.809-.595 1.542-.584 2.095-.442l.928.426a1.03 1.03 0 0 0 1.44-.17 1.02 1.02 0 0 0-.165-1.437l-.38.475c.38-.475.38-.475.379-.476h-.001l-.002-.002-.004-.003-.012-.009a2 2 0 0 0-.132-.095 4 4 0 0 0-.34-.21 5 5 0 0 0-1.196-.48c-1.029-.265-2.43-.254-3.833.778a1.02 1.02 0 0 0-.215 1.431c.338.455.982.55 1.439.214m3.018-.02h.002l.002.003h.002l-.003-.001zm0 0-.035-.025a2.982 2.982 0 0 0-.888-.397z" clip-rule="evenodd"/></svg>
